packages/ffe-icons/icons/filled/md/switch_account.svg

<svg xmlns="http://www.w3.org/2000/svg" height="24" viewBox="0 -960 960 960" width="24"><path d="M559.955-510.769q45.814 0 77.929-32.07 32.115-32.069 32.115-77.884 0-45.814-32.07-77.929t-77.884-32.115q-45.814 0-77.929 32.07t-32.115 77.884q0 45.814 32.07 77.929t77.884 32.115ZM332.309-260.001q-29.827 0-51.067-21.241-21.241-21.24-21.241-51.067v-455.382q0-29.827 21.241-51.067 21.24-21.241 51.067-21.241h455.382q29.827 0 51.067 21.241 21.241 21.24 21.241 51.067v455.382q0 29.827-21.241 51.067-21.24 21.241-51.067 21.241H332.309Zm-160 160q-29.827 0-51.067-21.241-21.241-21.24-21.241-51.067v-497.69q0-12.75 8.629-21.375t21.384-8.625q12.756 0 21.371 8.625Q160-682.749 160-669.999v497.69q0 5.385 3.462 8.847 3.462 3.462 8.847 3.462h497.69q12.75 0 21.375 8.629 8.625 8.628 8.625 21.384 0 12.755-8.625 21.37-8.625 8.616-21.375 8.616h-497.69ZM331.539-320h456.922q-42-52-101.778-80.615-59.777-28.615-126.614-28.615-66.838 0-126.684 28.615Q373.539-372 331.539-320Z"/></svg>

<svg xmlns="http://www.w3.org/2000/svg" height="24" viewBox="0 -960 960 960" width="24"><path d="M559.95-510.77q45.82 0 77.93-32.07Q670-574.91 670-620.72q0-45.82-32.07-77.93-32.07-32.12-77.88-32.12-45.82 0-77.93 32.07Q450-666.63 450-620.81q0 45.81 32.07 77.93 32.07 32.11 77.88 32.11ZM332.31-260q-29.83 0-51.07-21.24Q260-302.48 260-332.31v-455.38q0-29.83 21.24-51.07Q302.48-860 332.31-860h455.38q29.83 0 51.07 21.24Q860-817.52 860-787.69v455.38q0 29.83-21.24 51.07Q817.52-260 787.69-260H332.31Zm-160 160q-29.83 0-51.07-21.24Q100-142.48 100-172.31V-670q0-12.75 8.63-21.37 8.63-8.63 21.38-8.63 12.76 0 21.37 8.63Q160-682.75 160-670v497.69q0 5.39 3.46 8.85t8.85 3.46H670q12.75 0 21.37 8.63 8.63 8.63 8.63 21.38 0 12.76-8.63 21.37Q682.75-100 670-100H172.31Zm159.23-220h456.92q-42-52-101.78-80.61-59.77-28.62-126.61-28.62t-126.68 28.62Q373.54-372 331.54-320Z"/></svg>
